X:1
T:Gott hats' geredt
T:André Vierendeels
T:Source : Catechismus---Würzburg---J.Volmari---1652. Editor : André Vierendeels (04/09/17).
T:Notes : Original clef : C1, other voices supplied editorially Original note values have been quartered Text Middle German
T:Gott hats geredt
T:Melody by Georg Vogler (1625) (Tenor 1 voice)
T:©
T:©
T:©
C:André Vierendeels
Z:©
%%score [ 1 2 3 ]
L:1/8
Q:1/4=100
M:3/4
K:C
V:1 treble-8 nm="Tenor 1" snm="T 1"
V:2 treble-8 nm="Tenor 2" snm="T 2"
V:3 bass nm="Bass" snm="B"
V:1
 z2 z2 c2 | c4 c2 | G4 c2 | e2 d4 | c4 B2 | c4 d2 | c4 c2 | d4 d2 | c4 c2 | c4 A2 | c4 c2 | B4 B2 | %12
w: Gott|hats ge-|redt, der|wahr- haff-|tig ist,|dar- umb|glaub ichs|durch Je-|sum Chri-|stum, be-|kenn mich|rund mit|
 c4 c2 | c4 c2 | c4 d2 | e4 B2 | e2 d4 | c6 | f2 e4 | d2 c4 | c4 A2 | G6 | G2 A2 B2 | c4 d2 | %24
w: Hertz und|Mund zu|die- ser|Lehr, Todt,|kranck und|gsund,|da- mits|zu Got-|tes Ehr|g'dey,|Je- sus Ma-|ri- a|
 e2 d4 | c6 |] %26
w: steht mir|bey.|
V:2
 c6 | G4 E2 | D4 E2 | G2 c2 B2 | G4 G2 | G4 F2 | A4 G2 | B4 G2 | E4 G2 | A4 F2 | G4 A2 | D4 D2 | %12
w: Gott|hats ge-|redt, der|wahr- haff- *|tig ist,|dar- umb|glaub ichs|durch Je-|sum Chri-|stum, be-|kenn mich|rund mit|
 G4 E2 | A4 E2 | A4 B2 | G4 D2 | G2 G4 | A6 | A2 c4 | B2 G4 | G4 ^F2 | D6 | D2 F2 D2 | G2 c2 G2 | %24
w: Hertz und|Mund zu|die- ser|Lehr, Todt,|kranck und|gsund,|da- mits|zu Got-|tes Ehr|g'dey,|Je- sus Ma-|ri- * a|
 G4 D2 | E6 |] %26
w: steht mir|bey.|
V:3
 z2 z2 C,2 | E,4 C,2 | G,,4 C,2 | G,2 D,4 | E,4 D,2 | C,4 D,2 | F,4 C,2 | G,,4 D,2 | C,4 E,2 | %9
w: Gott|hats ge-|redt, der|wahr- haff-|tig ist,|dar- umb|glaub ichs|durch Je-|sum Chri-|
 F,4 D,2 | C,4 F,,2 | G,,4 G,,2 | C,4 C,2 | F,4 C,2 | F,4 D,2 | C,4 G,,2 | C,2 B,,4 | F,6 | %18
w: stum, be-|kenn mich|rund mit|Hertz und|Mund zu|die- ser|Lehr, Todt,|kranck und|gsund,|
 D,2 C,4 | G,,4 C,2 | E,2 D,4 | G,,6 | B,,2 F,,2 G,,2 | C,4 B,,2 | C,4 B,,2 | C,6 |] %26
w: da- mits|zu Got-|tes Ehr|g'dey,|Je- sus ma-|ri- a|steht mir|bey.|

